app/.vuepress/public/assets/img/open-microservice-guide.svg

<svg width="106" height="36" viewBox="0 0 106 36" fill="none" xmlns="http://www.w3.org/2000/svg">
<path d="M5.56 5.78V2.44C5.56 1.83 5.34 1.3 4.9 0.869999C4.47 0.44 3.94 0.219999 3.33 0.219999H2.22C1.61 0.219999 1.09 0.44 0.65 0.869999C0.22 1.3 0 1.83 0 2.44V5.78C0 6.39 0.22 6.91 0.66 7.35C1.09 7.78 1.61 8 2.22 8H3.33C3.94 8 4.47 7.78 4.91 7.35C5.34 6.92 5.56 6.39 5.56 5.78ZM4.44 5.78C4.44 6.09 4.33 6.35 4.11 6.57C3.9 6.78 3.64 6.89 3.33 6.89H2.22C1.91 6.89 1.65 6.78 1.43 6.56C1.22 6.35 1.11 6.09 1.11 5.78V2.44C1.11 2.13 1.22 1.87 1.44 1.65C1.65 1.44 1.91 1.33 2.22 1.33H3.33C3.64 1.33 3.9 1.44 4.12 1.66C4.33 1.87 4.44 2.13 4.44 2.44V5.78ZM5.56 22V14.22H4.72L2.78 16.17L0.83 14.22H0V22H1.11V16.17L2.22 17.28V19.67H3.33V17.28L4.44 16.17V22H5.56ZM5.56 33.78V31.56H3.33V32.67H4.44V33.78C4.44 34.09 4.33 34.35 4.11 34.57C3.9 34.78 3.64 34.89 3.33 34.89H2.22C1.91 34.89 1.65 34.78 1.43 34.56C1.22 34.35 1.11 34.09 1.11 33.78V30.44C1.11 30.13 1.22 29.87 1.44 29.65C1.65 29.44 1.91 29.33 2.22 29.33H3.33C3.64 29.33 3.9 29.44 4.12 29.66C4.33 29.87 4.44 30.13 4.44 30.44H5.56C5.56 29.83 5.34 29.3 4.9 28.87C4.47 28.44 3.94 28.22 3.33 28.22H2.22C1.61 28.22 1.09 28.44 0.65 28.87C0.22 29.3 0 29.83 0 30.44V33.78C0 34.39 0.22 34.91 0.66 35.35C1.09 35.78 1.61 36 2.22 36H3.33C3.94 36 4.47 35.78 4.91 35.35C5.34 34.92 5.56 34.39 5.56 33.78Z" fill="#477BF3"/>
<path d="M14.6205 2.44C14.6205 1.83 14.4005 1.3 13.9705 0.869999C13.5405 0.44 13.0105 0.219999 12.3905 0.219999H9.06055V8H10.1705V4.67H12.3905C13.0005 4.67 13.5305 4.45 13.9705 4.01C14.4005 3.58 14.6205 3.05 14.6205 2.44ZM13.5005 2.44C13.5005 2.75 13.3905 3.01 13.1705 3.23C12.9605 3.45 12.7005 3.56 12.3905 3.56H10.1705V1.33H12.3905C12.7005 1.33 12.9605 1.44 13.1805 1.66C13.3905 1.87 13.5005 2.13 13.5005 2.44ZM23.6811 8V6.89H19.2311V4.67H22.5611V3.56H19.2311V1.33H23.6811V0.219999H18.1211V8H23.6811ZM32.7416 8V0.219999H31.6216V3.9L27.9516 0.219999H27.1816V8H28.2916V2.1L31.6216 5.43V8H32.7416ZM14.6205 22V20.89H12.3905V15.33H14.6205V14.22H9.06055V15.33H11.2805V20.89H9.06055V22H14.6205ZM23.6811 19.78H22.5611C22.5611 20.09 22.4511 20.35 22.2311 20.57C22.0211 20.78 21.7611 20.89 21.4511 20.89H20.3411C20.0311 20.89 19.7711 20.78 19.5511 20.56C19.3411 20.35 19.2311 20.09 19.2311 19.78V16.44C19.2311 16.13 19.3411 15.87 19.5611 15.65C19.7711 15.44 20.0311 15.33 20.3411 15.33H21.4511C21.7611 15.33 22.0211 15.44 22.2411 15.66C22.4511 15.87 22.5611 16.13 22.5611 16.44H23.6811C23.6811 15.83 23.4611 15.3 23.0211 14.87C22.5911 14.44 22.0611 14.22 21.4511 14.22H20.3411C19.7311 14.22 19.2111 14.44 18.7711 14.87C18.3411 15.3 18.1211 15.83 18.1211 16.44V19.78C18.1211 20.39 18.3411 20.91 18.7811 21.35C19.2111 21.78 19.7311 22 20.3411 22H21.4511C22.0611 22 22.5911 21.78 23.0311 21.35C23.4611 20.92 23.6811 20.39 23.6811 19.78ZM31.6216 22H32.7416V19.78C32.7416 19.11 32.4216 18.56 31.7916 18.11C32.4316 17.66 32.7416 17.1 32.7416 16.44C32.7416 15.83 32.5216 15.3 32.0816 14.87C31.6516 14.44 31.1216 14.22 30.5116 14.22H27.1816V22H28.2916V18.67H30.5116C30.8216 18.67 31.0916 18.78 31.3116 19C31.5216 19.21 31.6316 19.47 31.6316 19.78C31.6216 20.75 31.6216 21.49 31.6216 22ZM28.2916 17.56V15.33H30.5116C30.8216 15.33 31.0816 15.44 31.3016 15.66C31.5116 15.87 31.6216 16.13 31.6216 16.44C31.6216 16.75 31.5116 17.02 31.2916 17.24C31.0816 17.45 30.8216 17.56 30.5116 17.56H28.2916ZM41.8022 19.78V16.44C41.8022 15.83 41.5822 15.3 41.1422 14.87C40.7122 14.44 40.1822 14.22 39.5722 14.22H38.4622C37.8522 14.22 37.3322 14.44 36.8922 14.87C36.4622 15.3 36.2422 15.83 36.2422 16.44V19.78C36.2422 20.39 36.4622 20.91 36.9022 21.35C37.3322 21.78 37.8522 22 38.4622 22H39.5722C40.1822 22 40.7122 21.78 41.1522 21.35C41.5822 20.92 41.8022 20.39 41.8022 19.78ZM40.6822 19.78C40.6822 20.09 40.5722 20.35 40.3522 20.57C40.1422 20.78 39.8822 20.89 39.5722 20.89H38.4622C38.1522 20.89 37.8922 20.78 37.6722 20.56C37.4622 20.35 37.3522 20.09 37.3522 19.78V16.44C37.3522 16.13 37.4622 15.87 37.6822 15.65C37.8922 15.44 38.1522 15.33 38.4622 15.33H39.5722C39.8822 15.33 40.1422 15.44 40.3622 15.66C40.5722 15.87 40.6822 16.13 40.6822 16.44V19.78ZM50.8627 19.78C50.8627 19.17 50.6427 18.64 50.2027 18.21C49.7727 17.78 49.2427 17.56 48.6327 17.56H47.5227C47.2127 17.56 46.9527 17.45 46.7327 17.23C46.5227 17.01 46.4127 16.75 46.4127 16.44C46.4127 16.13 46.5227 15.87 46.7427 15.65C46.9527 15.44 47.2127 15.33 47.5227 15.33H48.6327C48.9427 15.33 49.2027 15.44 49.4227 15.66C49.6327 15.87 49.7427 16.13 49.7427 16.44H50.8627C50.8627 15.83 50.6427 15.3 50.2027 14.87C49.7727 14.44 49.2427 14.22 48.6327 14.22H47.5227C46.9127 14.22 46.3927 14.44 45.9527 14.87C45.5227 15.3 45.3027 15.83 45.3027 16.44C45.3027 17.05 45.5227 17.58 45.9527 18.02C46.3827 18.45 46.9127 18.67 47.5227 18.67H48.6327C48.9427 18.67 49.2027 18.78 49.4227 19C49.6327 19.21 49.7427 19.47 49.7427 19.78C49.7427 20.09 49.6327 20.35 49.4127 20.57C49.2027 20.78 48.9427 20.89 48.6327 20.89H47.5227C47.2127 20.89 46.9527 20.78 46.7327 20.56C46.5227 20.35 46.4127 20.09 46.4127 19.78H45.3027C45.3027 20.39 45.5227 20.91 45.9627 21.35C46.3927 21.78 46.9127 22 47.5227 22H48.6327C49.2427 22 49.7727 21.78 50.2127 21.35C50.6427 20.92 50.8627 20.39 50.8627 19.78ZM59.9233 22V20.89H55.4733V18.67H58.8033V17.56H55.4733V15.33H59.9233V14.22H54.3633V22H59.9233ZM67.8638 22H68.9838V19.78C68.9838 19.11 68.6638 18.56 68.0338 18.11C68.6738 17.66 68.9838 17.1 68.9838 16.44C68.9838 15.83 68.7638 15.3 68.3238 14.87C67.8938 14.44 67.3638 14.22 66.7538 14.22H63.4238V22H64.5338V18.67H66.7538C67.0638 18.67 67.3338 18.78 67.5538 19C67.7638 19.21 67.8738 19.47 67.8738 19.78C67.8638 20.75 67.8638 21.49 67.8638 22ZM64.5338 17.56V15.33H66.7538C67.0638 15.33 67.3238 15.44 67.5438 15.66C67.7538 15.87 67.8638 16.13 67.8638 16.44C67.8638 16.75 67.7538 17.02 67.5338 17.24C67.3238 17.45 67.0638 17.56 66.7538 17.56H64.5338ZM78.0444 16.44V14.22H76.9244V16.17L75.2644 20.06L73.5944 16.19V14.22H72.4844V16.44L74.8544 22H75.6744L78.0444 16.44ZM87.1049 22V20.89H84.8749V15.33H87.1049V14.22H81.5449V15.33H83.7649V20.89H81.5449V22H87.1049ZM96.1655 19.78H95.0455C95.0455 20.09 94.9355 20.35 94.7155 20.57C94.5055 20.78 94.2455 20.89 93.9355 20.89H92.8255C92.5155 20.89 92.2555 20.78 92.0355 20.56C91.8255 20.35 91.7155 20.09 91.7155 19.78V16.44C91.7155 16.13 91.8255 15.87 92.0455 15.65C92.2555 15.44 92.5155 15.33 92.8255 15.33H93.9355C94.2455 15.33 94.5055 15.44 94.7255 15.66C94.9355 15.87 95.0455 16.13 95.0455 16.44H96.1655C96.1655 15.83 95.9455 15.3 95.5055 14.87C95.0755 14.44 94.5455 14.22 93.9355 14.22H92.8255C92.2155 14.22 91.6955 14.44 91.2555 14.87C90.8255 15.3 90.6055 15.83 90.6055 16.44V19.78C90.6055 20.39 90.8255 20.91 91.2655 21.35C91.6955 21.78 92.2155 22 92.8255 22H93.9355C94.5455 22 95.0755 21.78 95.5155 21.35C95.9455 20.92 96.1655 20.39 96.1655 19.78ZM105.226 22V20.89H100.776V18.67H104.106V17.56H100.776V15.33H105.226V14.22H99.666V22H105.226ZM14.6205 33.78V28.22H13.5005V33.78C13.5005 34.09 13.3905 34.35 13.1705 34.57C12.9605 34.78 12.7005 34.89 12.3905 34.89H11.2805C10.9705 34.89 10.7105 34.78 10.4905 34.56C10.2805 34.35 10.1705 34.09 10.1705 33.78V28.22H9.06055V33.78C9.06055 34.39 9.28055 34.91 9.72055 35.35C10.1505 35.78 10.6705 36 11.2805 36H12.3905C13.0005 36 13.5305 35.78 13.9705 35.35C14.4005 34.92 14.6205 34.39 14.6205 33.78ZM23.6811 36V34.89H21.4511V29.33H23.6811V28.22H18.1211V29.33H20.3411V34.89H18.1211V36H23.6811ZM32.7416 33.78V30.44C32.7416 29.83 32.5216 29.3 32.0816 28.87C31.6516 28.44 31.1216 28.22 30.5116 28.22H27.1816V36H30.5116C31.1216 36 31.6516 35.78 32.0916 35.35C32.5216 34.92 32.7416 34.39 32.7416 33.78ZM31.6216 33.78C31.6216 34.09 31.5116 34.35 31.2916 34.57C31.0816 34.78 30.8216 34.89 30.5116 34.89H28.2916V29.33H30.5116C30.8216 29.33 31.0816 29.44 31.3016 29.66C31.5116 29.87 31.6216 30.13 31.6216 30.44V33.78ZM41.8022 36V34.89H37.3522V32.67H40.6822V31.56H37.3522V29.33H41.8022V28.22H36.2422V36H41.8022Z" fill="#29328B"/>
</svg>

<svg fill="none" height="36" viewBox="0 0 106 36" width="106" xmlns="http://www.w3.org/2000/svg"><path d="m5.56 5.78v-3.34c0-.61-.22-1.14-.66-1.570001-.43-.429999-.96-.65-1.57-.65h-1.11c-.61 0-1.13.220001-1.57.65-.43.430001-.65.960001-.65 1.570001v3.34c0 .61.22 1.13.66 1.57.43.43.95.65 1.56.65h1.11c.61 0 1.14-.22 1.58-.65.43-.43.65-.96.65-1.57zm-1.12 0c0 .31-.11.57-.33.79-.21.21-.47.32-.78.32h-1.11c-.31 0-.57-.11-.79-.33-.21-.21-.32-.47-.32-.78v-3.34c0-.31.11-.57.33-.79.21-.21.47-.32.78-.32h1.11c.31 0 .57.11.79.33.21.21.32.47.32.78zm1.12 16.22v-7.78h-.84l-1.94 1.95-1.95-1.95h-.83v7.78h1.11v-5.83l1.11 1.11v2.39h1.11v-2.39l1.11-1.11v5.83zm0 11.78v-2.22h-2.23v1.11h1.11v1.11c0 .31-.11.57-.33.79-.21.21-.47.32-.78.32h-1.11c-.31 0-.57-.11-.79-.33-.21-.21-.32-.47-.32-.78v-3.34c0-.31.11-.57.33-.79.21-.21.47-.32.78-.32h1.11c.31 0 .57.11.79.33.21.21.32.47.32.78h1.12c0-.61-.22-1.14-.66-1.57-.43-.43-.96-.65-1.57-.65h-1.11c-.61 0-1.13.22-1.57.65-.43.43-.65.96-.65 1.57v3.34c0 .61.22 1.13.66 1.57.43.43.95.65 1.56.65h1.11c.61 0 1.14-.22 1.58-.65.43-.43.65-.96.65-1.57z" fill="#477bf3"/><path d="m14.6205 2.44c0-.61-.22-1.14-.65-1.570001-.43-.429999-.96-.65-1.58-.65h-3.32995v7.780001h1.10995v-3.33h2.22c.61 0 1.14-.22 1.58-.66.43-.43.65-.96.65-1.57zm-1.12 0c0 .31-.11.57-.33.79-.21.22-.47.33-.78.33h-2.22v-2.23h2.22c.31 0 .57.11.79.33.21.21.32.47.32.78zm10.1806 5.56v-1.11h-4.45v-2.22h3.33v-1.11h-3.33v-2.23h4.45v-1.110001h-5.56v7.780001zm9.0605 0v-7.780001h-1.12v3.680001l-3.67-3.680001h-.77v7.780001h1.11v-5.9l3.33 3.33v2.57zm-18.1211 14v-1.11h-2.23v-5.56h2.23v-1.11h-5.55995v1.11h2.21995v5.56h-2.21995v1.11zm9.0606-2.22h-1.12c0 .31-.11.57-.33.79-.21.21-.47.32-.78.32h-1.11c-.31 0-.57-.11-.79-.33-.21-.21-.32-.47-.32-.78v-3.34c0-.31.11-.57.33-.79.21-.21.47-.32.78-.32h1.11c.31 0 .57.11.79.33.21.21.32.47.32.78h1.12c0-.61-.22-1.14-.66-1.57-.43-.43-.96-.65-1.57-.65h-1.11c-.61 0-1.13.22-1.57.65-.43.43-.65.96-.65 1.57v3.34c0 .61.22 1.13.66 1.57.43.43.95.65 1.56.65h1.11c.61 0 1.14-.22 1.58-.65.43-.43.65-.96.65-1.57zm7.9405 2.22h1.12v-2.22c0-.67-.32-1.22-.95-1.67.64-.45.95-1.01.95-1.67 0-.61-.22-1.14-.66-1.57-.43-.43-.96-.65-1.57-.65h-3.33v7.78h1.11v-3.33h2.22c.31 0 .58.11.8.33.21.21.32.47.32.78-.01.97-.01 1.71-.01 2.22zm-3.33-4.44v-2.23h2.22c.31 0 .57.11.79.33.21.21.32.47.32.78s-.11.58-.33.8c-.21.21-.47.32-.78.32zm13.5106 2.22v-3.34c0-.61-.22-1.14-.66-1.57-.43-.43-.96-.65-1.57-.65h-1.11c-.61 0-1.13.22-1.57.65-.43.43-.65.96-.65 1.57v3.34c0 .61.22 1.13.66 1.57.43.43.95.65 1.56.65h1.11c.61 0 1.14-.22 1.58-.65.43-.43.65-.96.65-1.57zm-1.12 0c0 .31-.11.57-.33.79-.21.21-.47.32-.78.32h-1.11c-.31 0-.57-.11-.79-.33-.21-.21-.32-.47-.32-.78v-3.34c0-.31.11-.57.33-.79.21-.21.47-.32.78-.32h1.11c.31 0 .57.11.79.33.21.21.32.47.32.78zm10.1805 0c0-.61-.22-1.14-.66-1.57-.43-.43-.96-.65-1.57-.65h-1.11c-.31 0-.57-.11-.79-.33-.21-.22-.32-.48-.32-.79s.11-.57.33-.79c.21-.21.47-.32.78-.32h1.11c.31 0 .57.11.79.33.21.21.32.47.32.78h1.12c0-.61-.22-1.14-.66-1.57-.43-.43-.96-.65-1.57-.65h-1.11c-.61 0-1.13.22-1.57.65-.43.43-.65.96-.65 1.57s.22 1.14.65 1.58c.43.43.96.65 1.57.65h1.11c.31 0 .57.11.79.33.21.21.32.47.32.78s-.11.57-.33.79c-.21.21-.47.32-.78.32h-1.11c-.31 0-.57-.11-.79-.33-.21-.21-.32-.47-.32-.78h-1.11c0 .61.22 1.13.66 1.57.43.43.95.65 1.56.65h1.11c.61 0 1.14-.22 1.58-.65.43-.43.65-.96.65-1.57zm9.0606 2.22v-1.11h-4.45v-2.22h3.33v-1.11h-3.33v-2.23h4.45v-1.11h-5.56v7.78zm7.9405 0h1.12v-2.22c0-.67-.32-1.22-.95-1.67.64-.45.95-1.01.95-1.67 0-.61-.22-1.14-.66-1.57-.43-.43-.96-.65-1.57-.65h-3.33v7.78h1.11v-3.33h2.22c.31 0 .58.11.8.33.21.21.32.47.32.78-.01.97-.01 1.71-.01 2.22zm-3.33-4.44v-2.23h2.22c.31 0 .57.11.79.33.21.21.32.47.32.78s-.11.58-.33.8c-.21.21-.47.32-.78.32zm13.5106-1.12v-2.22h-1.12v1.95l-1.66 3.89-1.67-3.87v-1.97h-1.11v2.22l2.37 5.56h.82zm9.0605 5.56v-1.11h-2.23v-5.56h2.23v-1.11h-5.56v1.11h2.22v5.56h-2.22v1.11zm9.0606-2.22h-1.12c0 .31-.11.57-.33.79-.21.21-.47.32-.78.32h-1.11c-.31 0-.57-.11-.79-.33-.21-.21-.32-.47-.32-.78v-3.34c0-.31.11-.57.33-.79.21-.21.47-.32.78-.32h1.11c.31 0 .57.11.79.33.21.21.32.47.32.78h1.12c0-.61-.22-1.14-.66-1.57-.43-.43-.96-.65-1.57-.65h-1.11c-.61 0-1.13.22-1.57.65-.43.43-.65.96-.65 1.57v3.34c0 .61.22 1.13.66 1.57.43.43.95.65 1.56.65h1.11c.61 0 1.14-.22 1.58-.65.43-.43.65-.96.65-1.57zm9.0605 2.22v-1.11h-4.45v-2.22h3.33v-1.11h-3.33v-2.23h4.45v-1.11h-5.56v7.78zm-90.6055 11.78v-5.56h-1.12v5.56c0 .31-.11.57-.33.79-.21.21-.47.32-.78.32h-1.11c-.31 0-.57-.11-.79-.33-.21-.21-.32-.47-.32-.78v-5.56h-1.10995v5.56c0 .61.22 1.13.66 1.57.42995.43.94995.65 1.55995.65h1.11c.61 0 1.14-.22 1.58-.65.43-.43.65-.96.65-1.57zm9.0606 2.22v-1.11h-2.23v-5.56h2.23v-1.11h-5.56v1.11h2.22v5.56h-2.22v1.11zm9.0605-2.22v-3.34c0-.61-.22-1.14-.66-1.57-.43-.43-.96-.65-1.57-.65h-3.33v7.78h3.33c.61 0 1.14-.22 1.58-.65.43-.43.65-.96.65-1.57zm-1.12 0c0 .31-.11.57-.33.79-.21.21-.47.32-.78.32h-2.22v-5.56h2.22c.31 0 .57.11.79.33.21.21.32.47.32.78zm10.1806 2.22v-1.11h-4.45v-2.22h3.33v-1.11h-3.33v-2.23h4.45v-1.11h-5.56v7.78z" fill="#29328b"/></svg>
